!!!COM: Mozart, Wolfgang Amadeus
!!!OTL: String Quartet No. 11 in E-flat Major
!!!OMD: Allegro assai
!!!OMV: 4
!!!SCT1: K<sup>1</sup> 171
!!!SCA: Chronologisch-thematisches Verzeichnis sämtlicher Tonwerke Wolfgang Amade Mozarts (L. von Köchel; 1862, 2/1905, 3/1937, 1947)
!!!SCT2: K<sup>6</sup> 171
!!!YOR: Breitkopf & Härtel Edition
!!!ENC: Frances Bennion
!!!CDT: 1756/1/27/-1791/12/5/
!!!OCY: Österreich
!!!YEC: Copyright (c) 1994, 2000 Center for Computer Assisted Research in the Humanities
!!!YEM: Rights to all derivative editions reserved.
!!!YEM: Refer to licensing agreement for further details.
!!!YEN: United States of America
**kern	**kern	**kern	**kern
*k[b-e-a-]	*k[b-e-a-]	*k[b-e-a-]	*k[b-e-a-]
*E-:	*E-:	*E-:	*E-:
*clefC	*clefF	*clefG	*clefG
*M3/8	*M3/8	*M3/8	*M3/8
4E-	4B-	4g	4b-
8BB-	8d	8f	8a-
=2	=2	=2	=2
8C	8e-	8e-	8g
4r	4r	4r	4r
=3	=3	=3	=3
4AA-	4c	4f	4a-
8BB-	8A-	8d	8f
=4	=4	=4	=4
8EE-	8G	8e-	8e-
4r	4r	4r	4r
=5	=5	=5	=5
8BB-	8B-	8ff 8dd	8aa- 8b-
4r	4r	4r	4r
=6	=6	=6	=6
8E-	8B-	8ee- 8g	8gg 8b-
4r	4r	4r	4r
=7	=7	=7	=7
4AA-	4c	4f	4a-
8BB-	8A-	8d	8f
=8	=8	=8	=8
8EE-	8G	8e-	8e-
4r	4r	4r	4r
=9	=9	=9	=9
4E-	4g	16e-	16e-
.	.	16d	16d
.	.	16e-	16e-
.	.	16f	16f
8r	8r	16g	16g
.	.	16a	16a
=10	=10	=10	=10
4D	4f	16b-	16b-
.	.	16a	16a
.	.	16b-	16b-
.	.	16cc	16cc
8r	8r	16dd	16dd
.	.	16b-	16b-
=11	=11	=11	=11
16E-	16e-	16ee-	16ee-
16D	16d	16dd	16dd
16E-	16e-	16ee-	16ee-
16F	16f	16ff	16ff
16G	16g	16gg	16gg
16A	16a	16aa	16aa
=12	=12	=12	=12
4B-	4b-	4bb-	4bb-
8r	8r	8r	8r
=13	=13	=13	=13
8BB-	8B-	4.r	[4.b-
8BB-	8B-	.	.
8BB-	8B-	.	.
=14	=14	=14	=14
8BB-	8B-	4.r	8b-]
8BB-	8B-	.	8ee-
8BB-	8B-	.	8dd
=15	=15	=15	=15
8BB-	8B-	4.r	8dd
8BB-	8B-	.	8cc
8BB-	8B-	.	8b-
=16	=16	=16	=16
8BB-	8B-	4.r	8dd
8BB-	8B-	.	8cc
8BB-	8B-	.	8b-
=17	=17	=17	=17
8BB-	8B-	[4.B-	[4.dd
8BB-	8B-	.	.
8BB-	8B-	.	.
=18	=18	=18	=18
8BB-	8B-	8B-]	8dd]
8BB-	8B-	8e-	8gg
8BB-	8B-	8d	8ff
=19	=19	=19	=19
8BB-	8r	8d	8ff
8BB-	8A	8c	8ee-
8BB-	8B-	8B-	8dd
=20	=20	=20	=20
8BB-	8r	8d	8ff
8BB-	8A	8c	8ee-
8BB-	8B-	8B-	8dd
=21	=21	=21	=21
8D	8f	8a-	4.bb-
8D	8f	8a-	.
8D	8f	8a-	.
=22	=22	=22	=22
8D	8B-	8f	4.A-
8D	8B-	8f	.
8D	8B-	8f	.
=23	=23	=23	=23
8E-	8B-	8e-	4.G
8E-	8B-	8e-	.
8E-	8B-	8e-	.
=24	=24	=24	=24
8E-	8e-	8b-	[4.gg
8E-	8e-	8b-	.
8E-	8e-	8b	.
=25	=25	=25	=25
4E-	4e-	4cc	16gg]
.	.	.	16aa
.	.	.	16bb-
.	.	.	16aa
8r	8r	8r	16gg
.	.	.	16ff
=26	=26	=26	=26
4E-	4.c	4.g	16ee-
.	.	.	16ff
.	.	.	16ee-
.	.	.	16dd
8E	.	.	16cc
.	.	.	16b-
=27	=27	=27	=27
8F	8c	8f	8a
8FF	8A	8cc 8f	8ff 8a
8FF	8c	8cc 8f	8ff 8a
=28	=28	=28	=28
4FF	4F	4cc 4f	4ff 4a
8r	8r	8r	8r
=29	=29	=29	=29
4.BB-	4.d	8r	8r
.	.	16B-	16b-
.	.	16c	16cc
.	.	16d	16dd
.	.	16e-	16ee-
=30	=30	=30	=30
4.D	4.B-	8f	8ff
.	.	8f	8ff
.	.	8f	8ff
=31	=31	=31	=31
4.E-	4.A	8.f	8.ff
.	.	16g	16gg
.	.	8f	8ff
=32	=32	=32	=32
4.AA	4.e-	8.f	8.ff
.	.	16g	16gg
.	.	8f	8ff
=33	=33	=33	=33
4.BB-	4.d	8f	8ff
.	.	16d	16dd
.	.	16c	16cc
.	.	16d	16dd
.	.	16e-	16ee-
=34	=34	=34	=34
4.D	4.B-	8f	8ff
.	.	8f	8ff
.	.	8f	8ff
=35	=35	=35	=35
4.E-	4.A	8.f	8.ff
.	.	16g	16gg
.	.	8f	8ff
=36	=36	=36	=36
4.AA	4.e-	8.f	8.ff
.	.	16g	16gg
.	.	8f	8ff
=37	=37	=37	=37
8BB-	4.d	16f	4.ff
.	.	16b-	.
8BB-	.	16dd	.
.	.	16b-	.
8BB-	.	16ff	.
.	.	16dd	.
=38	=38	=38	=38
8BB-	16b-	8b-	16ddd
.	16a	.	16ccc
4r	16g	4r	16bb-
.	16f	.	16aa
.	16e-	.	16gg
.	16d	.	16ff
=39	=39	=39	=39
8E-	4.e-	16B-	4.gg
.	.	16e-	.
8E-	.	16g	.
.	.	16e-	.
8E-	.	16b-	.
.	.	16g	.
=40	=40	=40	=40
8E-	16g	8e-	16bb-
.	16f	.	16aa
4r	16e-	4r	16gg
.	16d	.	16ff
.	16c	.	16ee-
.	16B-	.	16dd
=41	=41	=41	=41
4E-	8A	8f	4cc
.	8f	8a	.
8D	8f	8b-	8dd
=42	=42	=42	=42
8C	8g	8cc	8ee-
8F	8f	8b-	8dd
8FF	8e-	8a	8cc
=43	=43	=43	=43
4.BB-	8d	4b-	8b-
.	16D	.	16d
.	16C	.	16c
.	16D	8r	16d
.	16E-	.	16e-
=44	=44	=44	=44
4.D	8F	4.B-	8f
.	8F	.	8f
.	8F	.	8f
=45	=45	=45	=45
4.E-	8.F	4.A	8.f
.	16G	.	16g
.	8F	.	8f
=46	=46	=46	=46
4.AA	8.F	4.e-	8.f
.	16G	.	16g
.	8F	.	8f
=47	=47	=47	=47
4.BB-	8F	4.d	8f
.	16D	.	16d
.	16C	.	16c
.	16D	.	16d
.	16E-	.	16e-
=48	=48	=48	=48
4.D	8F	4.B-	8f
.	8F	.	8f
.	8F	.	8f
=49	=49	=49	=49
4.E-	8.F	4.A	8.f
.	16G	.	16g
.	8F	.	8f
=50	=50	=50	=50
4.AA	8.F	4.e-	8.f
.	16G	.	16g
.	8F	.	8f
=51	=51	=51	=51
8BB-	16F	4.d	4.f
.	16B-	.	.
8BB-	16d	.	.
.	16B-	.	.
8BB-	16f	.	.
.	16d	.	.
=52	=52	=52	=52
8BB-	8B-	16b-	16dd
.	.	16a	16cc
4r	4r	16g	16b-
.	.	16f	16a
.	.	16e-	16g
.	.	16d	16f
=53	=53	=53	=53
8E-	16B-	4.e-	4.g
.	16e-	.	.
8E-	16g	.	.
.	16e-	.	.
8E-	16b-	.	.
.	16g	.	.
=54	=54	=54	=54
8E-	8e-	16g	16b-
.	.	16f	16a
4r	4r	16e-	16g
.	.	16d	16f
.	.	16c	16e-
.	.	16B-	16d
=55	=55	=55	=55
8F	4.F	4A	4c
8E-	.	.	.
8D	.	8B-	8d
=56	=56	=56	=56
8C	8G	8c	8e-
8F	8F	8B-	8d
8FF	8F	8A	8c
=57	=57	=57	=57
8BB-	16F	4.dd	4.ff
.	16B-	.	.
8BB-	16d	.	.
.	16B-	.	.
8BB-	16f	.	.
.	16d	.	.
=58	=58	=58	=58
8BB-	8B-	16bb-	16ddd
.	.	16aa	16ccc
4r	4r	16gg	16bb-
.	.	16ff	16aa
.	.	16ee-	16gg
.	.	16dd	16ff
=59	=59	=59	=59
8E-	16B-	4.ee-	4.gg
.	16e-	.	.
8E-	16g	.	.
.	16e-	.	.
8E-	16b-	.	.
.	16g	.	.
=60	=60	=60	=60
8E-	8e-	16gg	16bb-
.	.	16ff	16aa
4r	4r	16ee-	16gg
.	.	16dd	16ff
.	.	16cc	16ee-
.	.	16b-	16dd
=61	=61	=61	=61
8F	4.f	4a	4cc
8E-	.	.	.
8D	.	8b-	8dd
=62	=62	=62	=62
8C	8g	8cc	8ee-
8F	8f	8b-	8dd
8FF	8e-	8a	8cc
=63	=63	=63	=63
4BB-	4d	4b-	4b-
8r	8r	8r	8r
=64	=64	=64	=64
4B-	4f	4dd	4ff
8F	8a	8cc	8ee-
=65	=65	=65	=65
8G	8b-	8b-	8dd
4r	4r	4r	4r
=66	=66	=66	=66
4C	4g	4cc	4ee-
8F	8e-	8a	8cc
=67	=67	=67	=67
8BB-	8d	8b-	8b-
4r	4r	4r	4r
=68	=68	=68	=68
8F	8f	8ee- 8f	8aa 8cc
4r	4r	8r	4r
.	.	8r	.
=69	=69	=69	=69
8BB-	8f	8dd 8f	8bb- 8dd
4r	4r	4r	4r
=70	=70	=70	=70
8r	4G	4c	4e-
8E-	.	.	.
8F	8F	8A	8c
=71	=71	=71	=71
8BB-	8F	8B-	8B-
4r	4r	4r	4r
=72	=72	=72	=72
8B-	4.d	4.f	4b-
8B-	.	.	.
8B-	.	.	8bb-
=73	=73	=73	=73
8B-	4.e-	4.g	8bb-
8B-	.	.	8cc
8B-	.	.	8cc
=74	=74	=74	=74
8B-	4.f	4.a-	4cc
8B-	.	.	.
8B-	.	.	8aa-
=75	=75	=75	=75
8B-	4.d	4.f	8aa-
8B-	.	.	8b-
8B-	.	.	8b-
=76	=76	=76	=76
8B-	4.e-	4.g	4b-
8B-	.	.	.
8B-	.	.	8gg
=77	=77	=77	=77
8B-	4c	4e-	4a-
8B-	.	.	.
8B-	8d	8f	8ff
=78	=78	=78	=78
8B-	[4.B-	4e-	4g
8B-	.	.	.
8B-	.	8g	8ee-
=79	=79	=79	=79
8B-	4B-]	4d	4f
8F	.	.	.
8D	8r	8r	8r
=80	=80	=80	=80
8BB-	4.G	4.B-	4B-
8BB-	.	.	.
8BB-	.	.	8b-
=81	=81	=81	=81
8BB-	4.E	4.G	8b-
8BB-	.	.	8c
8BB-	.	.	8c
=82	=82	=82	=82
8BB-	4.F	[4.A-	4c
8BB-	.	.	.
8BB-	.	.	8a-
=83	=83	=83	=83
8BB-	4.D	4.A-]	8a-
8BB-	.	.	8B-
8BB-	.	.	8B-
=84	=84	=84	=84
8BB-	8E-	8G	8B-
8BB-	8G	8B-	8e-
8BB-	8B-	8e-	8g
=85	=85	=85	=85
8BB-	[4.B-	8g	8b-
8BB-	.	8e-	8g
8BB-	.	8b-	8ee-
=86	=86	=86	=86
8BB-	8B-]	8g	8b-
8BB-	8d	8f	8a-
8BB-	8e-	8e-	8g
=87	=87	=87	=87
8BB-	8B-	8d	8f
8B-	8b-	8b-	8b-
8B-	8b-	8b-	8b-
=88	=88	=88	=88
8G	8g	8g	8g
8F	8f	8f	8f
8E-	8e-	8e-	8e-
=89	=89	=89	=89
8F	8f	8f	8f
8B-	8b-	8b-	8b-
8B-	8b-	8b-	8b-
=90	=90	=90	=90
8G	8g	8g	8g
8F	8f	8f	8f
8E-	8e-	8e-	8e-
=91	=91	=91	=91
8BB-	8B-	8B-	8B-
4r	4r	4r	4r
=92	=92	=92	=92
4E-	4B-	4g	4b-
8BB-	8d	8f	8a-
=93	=93	=93	=93
8C	8e-	8e-	8g
4r	4r	4r	4r
=94	=94	=94	=94
4AA-	4c	4f	4a-
8BB-	8A-	8d	8f
=95	=95	=95	=95
8EE-	8G	8e-	8e-
4r	4r	4r	4r
=96	=96	=96	=96
8BB-	8B-	8a- 8B-	8dd 8f
4r	4r	4r	4r
=97	=97	=97	=97
8E-	8B-	8g 8B-	8ee- 8g
4r	4r	4r	4r
=98	=98	=98	=98
4AA-	4c	4f	4a-
8BB-	8A-	8d	8f
=99	=99	=99	=99
8EE-	8G	8e-	8e-
4r	4r	4r	4r
=100	=100	=100	=100
4E-	4g	16e-	16e-
.	.	16d	16d
.	.	16e-	16e-
.	.	16f	16f
8r	8r	16g	16g
.	.	16a	16a
=101	=101	=101	=101
4D	4f	16b-	16b-
.	.	16a	16a
.	.	16b-	16b-
.	.	16cc	16cc
8r	8r	16dd	16dd
.	.	16b-	16b-
=102	=102	=102	=102
16E-	16e-	16ee-	16ee-
16D	16d	16dd	16dd
16E-	16e-	16ee-	16ee-
16F	16f	16ff	16ff
16G	16g	16gg	16gg
16A	16a	16aa	16aa
=103	=103	=103	=103
4B-	4b-	4bb-	4bb-
8r	8r	8r	8r
=104	=104	=104	=104
8E-	8E-	4.r	[4.e-
8E-	8E-	.	.
8E-	8E-	.	.
=105	=105	=105	=105
8E-	8E-	4.r	8e-]
8E-	8E-	.	8a-
8E-	8E-	.	8g
=106	=106	=106	=106
8E-	8E-	4.r	8g
8E-	8E-	.	8f
8E-	8E-	.	8e-
=107	=107	=107	=107
8E-	8E-	4.r	8g
8E-	8E-	.	8f
8E-	8E-	.	8e-
=108	=108	=108	=108
8EE-	8E-	[4.e-	[4.g
8EE-	8E-	.	.
8EE-	8E-	.	.
=109	=109	=109	=109
8EE-	8E-	8e-]	8g]
8EE-	8E-	8a-	8cc
8EE-	8E-	8g	8b-
=110	=110	=110	=110
8EE-	8r	8g	8b-
8EE-	8D	8f	8a-
8EE-	8E-	8e-	8g
=111	=111	=111	=111
8EE-	8r	8g	8b-
8EE-	8D	8f	8a-
8EE-	8E-	8e-	8g
=112	=112	=112	=112
8GG	8G	8b-	4.ee-
8GG	8G	8b-	.
8GG	8G	8b-	.
=113	=113	=113	=113
8GG	8B-	8e-	4.d-
8GG	8B-	8e-	.
8GG	8B-	8e-	.
=114	=114	=114	=114
8AA-	8A-	8e-	4.c
8AA-	8A-	8e-	.
8AA-	8A-	8e-	.
=115	=115	=115	=115
8AA-	8e-	8a-	4.ccc
8AA-	8e-	8a-	.
8AA-	8e-	8a-	.
=116	=116	=116	=116
8AA-	8a-	8cc	16ccc
.	.	.	16bb-
4r	4r	4r	16aa-
.	.	.	16gg
.	.	.	16ff
.	.	.	16ee
=117	=117	=117	=117
4A-	[4.f	4.cc	16ff
.	.	.	16gg
.	.	.	16aa-
.	.	.	16gg
8A	.	.	16ff
.	.	.	16ee-
=118	=118	=118	=118
8B-	8f]	8b-	8dd
8F	8d	8dd 8f	8bb- 8dd
8D	8f	8dd 8f	8bb- 8dd
=119	=119	=119	=119
8BB-	4B-	4dd 4f	4bb- 4dd
4r	.	.	.
.	8r	8r	8r
=120	=120	=120	=120
4.E-	4.G	8r	8r
.	.	16e-	16ee-
.	.	16f	16ff
.	.	16g	16gg
.	.	16a-	16aa-
=121	=121	=121	=121
4.G	4.e-	8b-	8bb-
.	.	8b-	8bb-
.	.	8b-	8bb-
=122	=122	=122	=122
4.A-	4.d	8.b-	8.bb-
.	.	16cc	16ccc
.	.	8b-	8bb-
=123	=123	=123	=123
4.D	4.a-	8.b-	8.bb-
.	.	16cc	16ccc
.	.	8b-	8bb-
=124	=124	=124	=124
4.E-	4.g	8b-	8bb-
.	.	16g	16gg
.	.	16f	16ff
.	.	16g	16gg
.	.	16a-	16aa-
=125	=125	=125	=125
4.G	4.e-	8b-	8bb-
.	.	8b-	8bb-
.	.	8b-	8bb-
=126	=126	=126	=126
4.A-	4.d	8.b-	8.bb-
.	.	16cc	16ccc
.	.	8b-	8bb-
=127	=127	=127	=127
4.D	4.a-	8.b-	8.bb-
.	.	16cc	16ccc
.	.	8b-	8bb-
=128	=128	=128	=128
8E-	4.g	16b-	4.bb-
.	.	16ee-	.
8E-	.	16gg	.
.	.	16ee-	.
8E-	.	16bb-	.
.	.	16gg	.
=129	=129	=129	=129
8E-	16ee-	8ee-	16ggg
.	16dd	.	16fff
4r	16cc	4r	16eee-
.	16b-	.	16ddd
.	16a-	.	16ccc
.	16g	.	16bb-
=130	=130	=130	=130
8AA-	4.a-	16e-	4.ccc
.	.	16a-	.
8AA-	.	16cc	.
.	.	16a-	.
8AA-	.	16ee-	.
.	.	16cc	.
=131	=131	=131	=131
8AA-	16cc	8a-	16eee-
.	16b-	.	16ddd
4r	16a-	4r	16ccc
.	16g	.	16bb-
.	16f	.	16aa-
.	16e-	.	16gg
=132	=132	=132	=132
4A-	8d	8b-	4ff
.	8b-	8dd	.
8G	8b-	8ee-	8gg
=133	=133	=133	=133
8F	8cc	8ff	8aa-
8B-	8b-	8ee-	8gg
8BB-	8a-	8dd	8ff
=134	=134	=134	=134
8E-	8g	8ee-	8ee-
4r	16G	4r	16g
.	16F	.	16f
.	16G	.	16g
.	16A-	.	16a-
=135	=135	=135	=135
4.GG	8B-	4.e-	8b-
.	8B-	.	8b-
.	8B-	.	8b-
=136	=136	=136	=136
4.AA-	8.B-	4.d	8.b-
.	16c	.	16cc
.	8B-	.	8b-
=137	=137	=137	=137
4.DD	8.B-	4.a-	8.b-
.	16c	.	16cc
.	8B-	.	8b-
=138	=138	=138	=138
4.EE-	8B-	4.g	8b-
.	16G	.	16g
.	16F	.	16f
.	16G	.	16g
.	16A-	.	16a-
=139	=139	=139	=139
4.GG	8B-	4.e-	8b-
.	8B-	.	8b-
.	8B-	.	8b-
=140	=140	=140	=140
4.AA-	8.B-	4.d	8.b-
.	16c	.	16cc
.	8B-	.	8b-
=141	=141	=141	=141
4.DD	8.B-	4.a-	8.b-
.	16c	.	16cc
.	8B-	.	8b-
=142	=142	=142	=142
8EE-	16B-	4.g	4.b-
.	16e-	.	.
8EE-	16g	.	.
.	16e-	.	.
8EE-	16b-	.	.
.	16g	.	.
=143	=143	=143	=143
8EE-	8e-	16ee-	16gg
.	.	16dd	16ff
4r	4r	16cc	16ee-
.	.	16b-	16dd
.	.	16a-	16cc
.	.	16g	16b-
=144	=144	=144	=144
8AA-	16E-	4.a-	4.cc
.	16A-	.	.
8AA-	16c	.	.
.	16A-	.	.
8AA-	16e-	.	.
.	16c	.	.
=145	=145	=145	=145
8AA-	8A-	16cc	16ee-
.	.	16b-	16dd
4r	4r	16a-	16cc
.	.	16g	16b-
.	.	16f	16a-
.	.	16e-	16g
=146	=146	=146	=146
4AA-	4.B-	4d	4f
8GG	.	8e-	8g
=147	=147	=147	=147
8FF	8c	8f	8a-
4BB-	8B-	8e-	8g
.	8B-	8d	8f
=148	=148	=148	=148
8E-	16B-	4.gg	4.bb-
.	16e-	.	.
8E-	16g	.	.
.	16e-	.	.
8E-	16b-	.	.
.	16g	.	.
=149	=149	=149	=149
8E-	8e-	16eee-	16ggg
.	.	16ddd	16fff
4r	4r	16ccc	16eee-
.	.	16bb-	16ddd
.	.	16aa-	16ccc
.	.	16gg	16bb-
=150	=150	=150	=150
8AA-	16E-	4.aa-	4.ccc
.	16A-	.	.
8AA-	16c	.	.
.	16A-	.	.
8AA-	16e-	.	.
.	16c	.	.
=151	=151	=151	=151
8AA-	8A-	16ccc	16eee-
.	.	16bb-	16ddd
4r	4r	16aa-	16ccc
.	.	16gg	16bb-
.	.	16ff	16aa-
.	.	16ee-	16gg
=152	=152	=152	=152
8B-	8B-	4dd	4ff
8A-	8b-	.	.
8G	8b-	8ee-	8gg
=153	=153	=153	=153
8F	8cc	8ff	8aa-
8B-	8b-	8ee-	8gg
8BB-	8a-	8dd	8ff
=154	=154	=154	=154
4E-	4g	4ee-	4ee-
8r	8r	8r	8r
=155	=155	=155	=155
4E-	4B-	4g	4b-
8BB-	8d	8f	8a-
=156	=156	=156	=156
8C	8e-	8e-	8g
4r	4r	4r	8r
.	.	.	8r
=157	=157	=157	=157
4AA-	4c	4f	4a-
8BB-	8A-	8d	8f
=158	=158	=158	=158
8EE-	8G	8e-	8e-
4r	4r	4r	8r
.	.	.	8r
=159	=159	=159	=159
8BB-	8B-	8dd 8f	8aa- 8b-
4r	4r	4r	8r
.	.	.	8r
=160	=160	=160	=160
8E-	8B-	8ee- 8g	8gg 8b-
4r	4r	4r	8r
.	.	.	8r
=161	=161	=161	=161
8r	4c	4f	4a-
8AA-	.	.	.
8BB-	8A-	8d	8f
=162	=162	=162	=162
8EE-	8G	8e-	8e-
4r	4r	4r	8r
.	.	.	8r
==	==	==	==
*-	*-	*-	*-
!!!RWG1: This file contains only pitch and duration data.
!!!RWG2: Transposing instruments are not transposed.
!!!RWG3: Spines may have incompatible meters.
!!!RWG4: Durations of rests and tied notes may be interpreted.
!!!RWG: Key is interpreted using the Humdrum key tool.
!!!AFT: stage1
!!!END: 1997/04/15
!!!KEY: 3955796539
!!!EMD: Converted from MuseData to Humdrum Dec 16, 2000, by Andreas Kornstaedt using muse2kern.
!!!EMD: Manual editing by Craig Sapp, Nov 2001
